styles/1/Numix/22/places/custom-folder-books.svg

<?xml version="1.0" encoding="UTF-8" standalone="no"?>
<!-- Created with Inkscape (http://www.inkscape.org/) -->

<svg
   xmlns:dc="http://purl.org/dc/elements/1.1/"
   xmlns:cc="http://creativecommons.org/ns#"
   xmlns:rdf="http://www.w3.org/1999/02/22-rdf-syntax-ns#"
   xmlns:svg="http://www.w3.org/2000/svg"
   xmlns="http://www.w3.org/2000/svg"
   xmlns:sodipodi="http://sodipodi.sourceforge.net/DTD/sodipodi-0.dtd"
   xmlns:inkscape="http://www.inkscape.org/namespaces/inkscape"
   id="svg3396"
   height="22"
   width="22"
   version="1.0"
   inkscape:version="0.91 r"
   sodipodi:docname="custom-folder-books.svg">
  <metadata
     id="metadata64">
    <rdf:RDF>
      <cc:Work
         rdf:about="">
        <dc:format>image/svg+xml</dc:format>
        <dc:type
           rdf:resource="http://purl.org/dc/dcmitype/StillImage" />
        <dc:title />
      </cc:Work>
    </rdf:RDF>
  </metadata>
  <sodipodi:namedview
     pagecolor="#ffffff"
     bordercolor="#666666"
     borderopacity="1"
     objecttolerance="10"
     gridtolerance="10"
     guidetolerance="10"
     inkscape:pageopacity="0"
     inkscape:pageshadow="2"
     inkscape:window-width="1366"
     inkscape:window-height="747"
     id="namedview62"
     showgrid="true"
     inkscape:zoom="8"
     inkscape:cx="5.6062448"
     inkscape:cy="6.3472784"
     inkscape:window-x="0"
     inkscape:window-y="21"
     inkscape:window-maximized="1"
     inkscape:current-layer="svg3396">
    <inkscape:grid
       type="xygrid"
       id="grid3906"
       empspacing="5"
       visible="true"
       enabled="true"
       snapvisiblegridlinesonly="true" />
  </sodipodi:namedview>
  <defs
     id="defs3398" />
  <path
     style="color:#000000;font-style:normal;font-variant:normal;font-weight:normal;font-stretch:normal;font-size:medium;line-height:normal;font-family:Sans;-inkscape-font-specification:Sans;text-indent:0;text-align:start;text-decoration:none;text-decoration-line:none;letter-spacing:normal;word-spacing:normal;text-transform:none;direction:ltr;block-progression:tb;writing-mode:lr-tb;baseline-shift:baseline;text-anchor:start;display:inline;overflow:visible;visibility:visible;fill:replacecolour1;fill-opacity:1;fill-rule:nonzero;stroke:none;stroke-width:1.52408636;marker:none;enable-background:accumulate"
     d="M 1.625 3 C 1.2775698 3.0635461 0.99985298 3.3968062 1 3.75 L 1 18.25 C 1.00617 18.640979 1.3590206 18.99383 1.75 19 L 20.25 19 C 20.640979 18.9938 20.99383 18.640979 21 18.25 L 21 5.8125 C 20.99383 5.4215206 20.640979 5.0061695 20.25 5 L 13 5 L 13 3.75 C 12.99383 3.3590206 12.640979 3.0061695 12.25 3 L 1.625 3 z M 6.625 7 C 8.5 7 9.75 7.6243156 11 8.6660156 C 12.250001 7.6243156 13.500001 7 15.375 7 L 12 9.5 L 10 9.5 L 6.625 7 z M 6 7.8339844 L 9 9.9160156 L 9 16.166016 L 6 14.083984 L 6 7.8339844 z M 16 7.8339844 L 16 14.083984 L 13 16.166016 L 13 9.9160156 L 16 7.8339844 z M 10 11 L 12 11 L 12 17 L 10 17 L 10 11 z "
     id="path3912" />
  <g
     transform="matrix(2.2145669,0,0,2.2145669,6.0000001,-13.000003)"
     inkscape:label="Symbol"
     id="layer3"
     style="fill:#000000;fill-opacity:1">
    <g
       style="fill:#000000;fill-opacity:1"
       id="g4450">
      <g
         style="fill:#000000;fill-opacity:1"
         id="g4526" />
    </g>
  </g>
</svg>

<!-- Created with Inkscape (http://www.inkscape.org/) -->
<svg xmlns="http://www.w3.org/2000/svg" viewBox="0 0 22 22">
 <path d="m 1.625 3 c -0.347 0.064 -0.625 0.397 -0.625 0.75 l 0 14.5 c 0.006 0.391 0.359 0.744 0.75 0.75 l 18.5 0 c 0.391 -0.006 0.744 -0.359 0.75 -0.75 l 0 -12.438 c -0.006 -0.391 -0.359 -0.806 -0.75 -0.813 l -7.25 0 l 0 -1.25 c -0.006 -0.391 -0.359 -0.744 -0.75 -0.75 l -10.625 0 z m 5 4 c 1.875 0 3.125 0.624 4.375 1.666 c 1.25 -1.042 2.5 -1.666 4.375 -1.666 l -3.375 2.5 l -2 0 l -3.375 -2.5 z m -0.625 0.834 l 3 2.082 l 0 6.25 l -3 -2.082 l 0 -6.25 z m 10 0 l 0 6.25 l -3 2.082 l 0 -6.25 l 3 -2.082 z m -6 3.166 l 2 0 l 0 6 l -2 0 l 0 -6 z" style="visibility:visible;fill:replacecolour1;fill-opacity:1;stroke:none;display:inline;color:#000;fill-rule:nonzero"/>
</svg>
